X: 429
T: Daniel O'Daly
N:"Slow" "collected by J.O'Neill"
N:Irish title: do.mnall ua dalai.g
B:O'Neill's 429
Z:Transcribed by henrik.norbeck@mailbox.swipnet.se
M:3/4
L:1/8
K:D
(D/E/) | (F2 G2) .A2 | (d2 A2) (A>G) | (TE2 D2) .D2 | D4 (d>e) |
(f2 e2) (d>e) | d3 (e d/c/A/G/) | (A2 d2) .d2 | d4 (d>e) |
(f2 e2) (d>e) | d3 (e d/c/A/G/) | (TE2 D2) .C2 | C4 (D>E) |
(F2 G2) .A2 | d2 A2 A>G | (TE2 D2) .D2 | D4 ||


